X:0670
T:Boolonzie.
M:2/4
L:1/8
Q:1/4=132
I: :: ::
Z:Jack Campin * www.campin.me.uk * 2009
K:D
A|(Ad)(.d.d)|  d2  dd|efce |(d2.B.A)|(Ad)(.d.d)|d2 dd|(eg)ce|d2d:|
A| fd```fg  |(3aba de|f>efg| a2 d2  | f>e``fg  |a>bag| f>efg|a2d:|
<end>
<start>
